SVG/cc-visa.svg

<?xml version="1.0" encoding="utf-8"?>
<!-- Generated by IcoMoon.io -->
<!DOCTYPE svg PUBLIC "-//W3C//DTD SVG 1.1//EN" "http://www.w3.org/Graphics/SVG/1.1/DTD/svg11.dtd">
<svg version="1.1" xmlns="http://www.w3.org/2000/svg" xmlns:xlink="http://www.w3.org/1999/xlink" width="18" height="14" viewBox="0 0 18 14">
<path fill="#444444" d="M15.43 7.734h-1.078q0.109-0.289 0.516-1.398l0.023-0.070q0.031-0.078 0.078-0.203t0.070-0.203l0.094 0.43zM4.148 7.227l-0.453-2.305q-0.086-0.422-0.586-0.422h-2.094l-0.016 0.102q2.43 0.617 3.148 2.625zM5.547 4.5l-1.266 3.422-0.133-0.695q-0.203-0.547-0.664-1.012t-1.023-0.691l1.055 3.984h1.367l2.039-5.008h-1.375zM6.633 9.516h1.297l0.813-5.016h-1.297zM12.633 4.625q-0.539-0.211-1.164-0.211-0.961 0-1.57 0.461t-0.617 1.195q-0.008 0.797 1.133 1.359 0.375 0.18 0.523 0.32t0.148 0.305q0 0.234-0.234 0.359t-0.539 0.125q-0.672 0-1.219-0.258l-0.172-0.086-0.18 1.125q0.578 0.266 1.445 0.266 1.016 0.008 1.629-0.461t0.629-1.25q0-0.828-1.094-1.359-0.383-0.195-0.555-0.328t-0.172-0.297q0-0.172 0.191-0.301t0.551-0.129q0.547-0.008 0.969 0.187l0.117 0.062zM15.953 4.5h-1q-0.508 0-0.68 0.422l-1.922 4.594h1.359l0.273-0.75h1.656q0.039 0.172 0.156 0.75h1.203zM18 2v10q0 0.406-0.297 0.703t-0.703 0.297h-16q-0.406 0-0.703-0.297t-0.297-0.703v-10q0-0.406 0.297-0.703t0.703-0.297h16q0.406 0 0.703 0.297t0.297 0.703z"></path>
</svg>

<svg xmlns="http://www.w3.org/2000/svg" viewBox="0 0 18 14"><path d="M15.43 7.734h-1.078q.11-.29.516-1.398l.023-.07q.032-.078.08-.203t.07-.203l.093.43zM4.148 7.227l-.453-2.305Q3.61 4.5 3.11 4.5H1.014L1 4.602q2.43.617 3.147 2.625zm1.4-2.727L4.28 7.922l-.132-.695q-.203-.547-.664-1.012t-1.023-.69l1.056 3.983h1.367L6.923 4.5H5.546zm1.085 5.016H7.93L8.743 4.5H7.446zm6-4.89q-.54-.212-1.164-.212-.962 0-1.57.46T9.28 6.07q-.008.797 1.133 1.36.375.18.523.32t.148.304q0 .234-.234.36t-.54.124q-.67 0-1.218-.258l-.172-.086-.18 1.125q.578.265 1.445.265 1.016.008 1.63-.46t.628-1.25q0-.83-1.094-1.36-.382-.195-.554-.328t-.172-.297q0-.172.19-.3t.552-.13q.547-.008.97.187l.116.062zm3.32-.126h-1q-.508 0-.68.422L12.35 9.516h1.36l.273-.75h1.656q.038.172.155.75h1.203zM18 2v10q0 .406-.297.703T17 13H1q-.406 0-.703-.297T0 12V2q0-.406.297-.703T1 1h16q.406 0 .703.297T18 2z" /></svg>
